lg/olark.svg

<svg viewBox="0 0 512 323" version="1.1" xmlns="http://www.w3.org/2000/svg" preserveAspectRatio="xMidYMid" height="1em" width="1em">
  <g>
    <path d="M505.049145,209.646574 C506.752105,209.403215 507.968504,214.270407 507.968504,217.920801 C507.968504,226.925107 502.616347,233.009097 496.047786,233.495816 L496.047786,233.495816 L385.598697,241.283324 L165.916916,258.075137 C162.267717,258.318497 158.861798,260.022014 156.428998,262.698969 L156.428998,262.698969 L102.177573,320.375198 C98.0418137,324.512311 91.2299754,322.322075 91.2299754,316.724804 L91.2299754,316.724804 L91.2299754,267.809522 C91.2299754,265.619285 89.5270163,263.915768 87.0942168,263.915768 L87.0942168,263.915768 L13.3803964,269.513039 C5.35215858,269.999758 4.86559869,272.676714 2.91935922,272.920073 C1.21639968,272.920073 0,268.296241 0,264.402487 C0,255.398181 5.35215858,249.314191 11.9207168,248.827472 L11.9207168,248.827472 L63.496063,245.420437 L107.286451,242.013403 C109.475971,241.770043 111.42221,243.47356 111.42221,245.663797 L111.42221,245.663797 L111.42221,281.924379 L147.914201,242.986841 C150.347,240.553245 153.752919,238.849728 157.158838,238.606368 L157.158838,238.606368 L477.071953,214.270407 L477.071953,214.270407 L494.588106,213.053609 C502.616347,212.566889 503.102904,209.889934 505.049145,209.646574 Z M402.601781,0.11544947 C411.896353,-0.864864365 418.011205,4.52686171 418.011205,11.3890586 L418.011205,11.3890586 L418.011205,100.597617 C427.305779,87.3633809 438.557104,75.1094579 451.520589,74.129144 C469.131357,72.6586731 476.95837,86.8732239 476.95837,103.048402 C476.95837,125.105463 461.059754,142.751112 449.563838,152.064094 C452.498964,164.318017 458.613817,175.346547 469.865142,174.366234 C483.073218,173.38592 492.612387,154.514878 495.302918,141.770798 C498.727235,123.880071 514.381256,136.133994 511.69072,145.446975 C506.554247,161.377075 492.367792,191.521726 466.440825,193.482353 C443.938171,195.442981 429.017939,170.690057 429.017939,151.819015 C429.017939,148.907483 431.921294,145.729061 435.81179,141.825764 L436.529604,141.107984 C444.41452,133.243294 455.678686,122.458616 455.678686,105.254108 C455.678686,98.146833 452.009775,93.4903422 446.628707,93.9804991 C439.780074,94.4706561 426.816589,104.763951 418.011205,135.888915 L418.011205,135.888915 L418.011393,186.468043 C418.011163,186.542421 418.010852,186.616953 418.010438,186.69162 L418.006556,187.141103 C418.00474,187.291376 418.002346,187.442046 417.999209,187.59297 L417.987395,188.046356 C417.838793,192.736225 416.814325,197.531049 409.939601,198.138844 C404.313939,198.629001 396.242336,197.403609 396.242336,186.865235 C390.127485,194.707746 381.811288,200.34455 370.804557,201.324864 C357.351885,202.305178 341.208679,196.178216 341.208679,170.935135 C341.208679,152.554251 347.568123,138.584778 356.618103,113.096619 L356.618103,113.096619 L330.691135,108.19505 C330.446541,119.468659 328.734383,144.466661 323.597908,161.622154 C323.597908,161.867232 323.353314,162.112311 323.353314,162.357389 C318.216839,181.473509 306.720919,206.226433 282.995298,208.187061 C272.966943,208.922296 265.384528,204.755962 260.981835,198.138844 C255.111578,205.246119 247.039975,210.882924 236.277838,211.863238 C223.314354,212.843552 214.01978,207.206747 208.394118,197.648687 C200.811702,207.451826 190.783347,215.539415 177.819863,216.519729 C155.8064,218.235278 144.065886,203.775649 144.065886,181.22843 L144.065886,181.22843 L144.065886,80.011027 C138.195629,85.1576748 131.591591,89.8141652 126.69971,92.26495 C127.92268,100.107461 128.411868,107.949971 128.411868,114.812168 C128.411868,187.60047 96.8592377,222.891768 63.5944489,225.587632 C21.7688691,228.773652 0,188.335706 0,137.114308 C0,39.5730813 57.7241923,12.6144508 60.1701324,11.634137 C61.1485088,11.3890586 62.1268847,10.8989016 63.3498552,10.8989016 C69.7093,10.4087447 73.3782105,18.7414123 73.3782105,25.1134523 C73.3782105,28.7896292 72.3998342,31.7305706 69.7093,31.9756491 C69.2201118,31.9756491 68.7309236,31.9756491 68.2417358,31.7305706 C58.2133801,38.1026106 22.9918393,58.9342797 22.9918393,132.457817 C22.9918393,184.41445 44.2715205,205.736276 64.5728252,204.020727 C88.2984465,202.305178 106.153811,170.444978 106.398405,116.772796 C106.398405,111.38107 105.909217,105.254108 105.420029,99.3722252 L105.420029,99.3722252 L100.03896,99.8623821 C76.0687447,101.577931 56.99041,89.07893 56.99041,67.0218688 C56.99041,52.0720828 67.5079535,38.8378459 82.9173777,37.6124536 C103.707871,35.8969044 115.692978,51.5819258 122.052423,71.1882027 C129.879432,67.5120257 139.4186,58.1990441 144.065886,53.297475 L144.065886,53.297475 L144.065886,50.8466906 C144.065886,29.2797861 155.8064,13.1046078 170.237448,11.8792155 C195.430634,9.91858781 195.675228,39.8181598 195.675228,55.993338 C195.675228,98.146833 169.503666,158.191055 165.834756,161.867232 L165.834756,161.867232 L165.834756,178.532567 C165.834756,190.051255 170.482042,197.893766 180.999586,197.15853 C190.294159,196.423295 197.876574,186.865235 202.523861,176.817018 C202.279267,174.85639 202.279267,173.140841 202.279267,171.180214 C202.279267,123.389914 235.544055,91.5297148 270.276408,88.5887731 C278.103418,88.0986161 283.484486,92.26495 283.484486,99.6173039 C283.484486,104.518873 282.750704,106.234422 279.815576,106.4795 C277.125042,106.4795 274.434507,106.234422 271.499379,106.4795 C249.730509,108.19505 224.29273,128.78164 224.29273,170.1999 C224.29273,185.149686 230.652175,193.237275 240.68053,192.50204 C248.507539,192.011883 253.644014,184.659529 256.823736,176.326861 L256.823736,176.326861 L256.823736,132.212739 C256.823736,126.821012 255.600766,125.105463 255.600766,123.144836 C255.600766,120.448973 259.025083,117.998188 262.938587,117.75311 C272.233161,116.772796 278.348012,122.164522 278.348012,129.026719 L278.348012,129.026719 L278.348012,176.57194 C278.348012,182.94398 281.28314,189.561098 288.131773,189.070941 C299.383099,188.090627 304.519573,169.219586 307.210108,156.475506 C307.454702,156.230428 307.454702,155.985349 307.454702,155.740271 L307.454702,155.005035 C310.634424,143.241269 311.857395,119.468659 312.101988,104.763951 C305.008761,101.332853 299.872286,95.6960482 299.872286,87.3633809 C299.872286,79.5208701 306.965513,73.638987 314.303335,73.1488301 C321.151968,72.6586731 329.223571,75.3545362 332.403293,86.8732239 C334.912828,87.2457431 337.59013,87.6801937 340.280853,88.1395937 L341.555802,88.3589247 L341.555802,88.3589247 L342.405084,88.5067874 C343.112215,88.6304638 343.817463,88.755194 344.518014,88.8803041 L345.356242,89.0305754 C354.965797,90.7598004 363.466736,92.5100283 363.466736,92.5100283 C371.049151,93.9804991 378.386972,100.842696 377.164002,107.459814 C377.164002,110.890913 363.222142,139.074935 363.222142,167.749115 C363.222142,175.591626 366.891052,182.94398 374.718061,182.208744 C387.926139,181.22843 392.573426,162.357389 395.26396,149.613309 C395.508554,148.142838 395.997742,146.917446 396.48693,145.692054 L396.48693,145.692054 L396.48693,14.820157 C396.48693,6.4874894 393.551802,5.99733248 393.551802,4.0367048 C393.551802,2.07607714 398.688277,0.360527928 402.601781,0.11544947 Z M178.064457,57.9539658 C178.064457,39.0829244 174.884735,30.7502568 170.237448,30.9953353 C167.057726,31.2404137 165.834756,38.1026106 165.834756,42.7591011 L165.834756,42.7591011 L166.079349,42.7591011 L166.079349,124.615306 C171.949606,112.116305 178.064457,73.638987 178.064457,57.9539658 Z M101.995712,79.5208701 C99.3051782,66.5317118 93.4349212,57.2187302 84.6295359,57.9539658 C79.0038734,58.4441227 77.5363089,62.6104566 77.5363089,65.7964762 C77.5363089,72.9037518 83.895754,81.2364192 98.81599,80.011027 L98.81599,80.011027 Z" fill="#000000"/>
  </g>
</svg>

<svg viewBox="0 0 512 323" xmlns="http://www.w3.org/2000/svg" preserveAspectRatio="xMidYMid" height="1em" width="1em">
  <path d="M505.05 209.647c1.702-.244 2.919 4.623 2.919 8.274 0 9.004-5.353 15.088-11.921 15.575l-110.45 7.787-219.681 16.792c-3.65.243-7.055 1.947-9.488 4.624l-54.251 57.676c-4.136 4.137-10.948 1.947-10.948-3.65V267.81c0-2.19-1.703-3.894-4.136-3.894l-73.714 5.597c-8.028.487-8.514 3.164-10.46 3.407-1.704 0-2.92-4.624-2.92-8.518 0-9.004 5.352-15.088 11.92-15.575l51.576-3.407 43.79-3.407c2.19-.243 4.136 1.46 4.136 3.65v36.261l36.492-38.937c2.433-2.434 5.839-4.137 9.245-4.38l319.913-24.337 17.516-1.216c8.028-.487 8.515-3.164 10.461-3.407ZM402.601.115c9.294-.98 15.41 4.412 15.41 11.274v89.209c9.294-13.235 20.545-25.489 33.509-26.469 17.61-1.47 25.437 12.744 25.437 28.92 0 22.056-15.898 39.702-27.394 49.015 2.935 12.254 9.05 23.283 20.301 22.302 13.208-.98 22.747-19.851 25.438-32.595 3.424-17.89 19.078-5.637 16.388 3.676-5.137 15.93-19.323 46.075-45.25 48.035-22.503 1.961-37.423-22.792-37.423-41.663 0-2.912 2.903-6.09 6.794-9.993l.718-.718c7.885-7.865 19.149-18.65 19.149-35.854 0-7.107-3.67-11.764-9.05-11.274-6.849.49-19.812 10.784-28.618 41.909v50.803l-.004.45-.008.451-.012.453c-.148 4.69-1.173 9.485-8.047 10.093-5.626.49-13.698-.735-13.698-11.274-6.115 7.843-14.43 13.48-25.437 14.46-13.453.98-29.596-5.147-29.596-30.39 0-18.38 6.36-32.35 15.41-57.838l-25.928-4.902c-.244 11.274-1.957 36.272-7.093 53.427 0 .245-.245.49-.245.735-5.136 19.117-16.632 43.87-40.358 45.83-10.028.735-17.61-3.431-22.013-10.048-5.87 7.107-13.942 12.744-24.704 13.724-12.964.98-22.258-4.656-27.884-14.214-7.582 9.803-17.61 17.89-30.574 18.87-22.014 1.716-33.754-12.743-33.754-35.29V80.01c-5.87 5.147-12.474 9.803-17.366 12.254 1.223 7.842 1.712 15.685 1.712 22.547 0 72.788-31.553 108.08-64.818 110.776C21.77 228.774 0 188.336 0 137.114c0-97.54 57.724-124.5 60.17-125.48.979-.245 1.957-.735 3.18-.735 6.36-.49 10.028 7.842 10.028 14.214 0 3.677-.978 6.618-3.669 6.863-.489 0-.978 0-1.467-.245-10.029 6.372-45.25 27.203-45.25 100.727 0 51.956 21.28 73.278 41.58 71.563 23.726-1.716 41.582-33.576 41.826-87.248 0-5.392-.489-11.519-.978-17.4l-5.381.49c-23.97 1.715-43.049-10.784-43.049-32.841 0-14.95 10.518-28.184 25.927-29.41 20.79-1.715 32.776 13.97 39.135 33.576 7.827-3.676 17.367-12.989 22.014-17.89v-2.451c0-21.567 11.74-37.742 26.171-38.968 25.194-1.96 25.438 27.94 25.438 44.114 0 42.154-26.171 102.198-29.84 105.874v16.666c0 11.518 4.647 19.36 15.165 18.626 9.294-.736 16.877-10.294 21.524-20.342-.245-1.96-.245-3.676-.245-5.637 0-47.79 33.265-79.65 67.997-82.591 7.827-.49 13.208 3.676 13.208 11.028 0 4.902-.733 6.617-3.668 6.862-2.691 0-5.381-.245-8.317 0-21.768 1.716-47.206 22.303-47.206 63.72 0 14.95 6.36 23.038 16.388 22.303 7.827-.49 12.963-7.842 16.143-16.175v-44.114c0-5.392-1.223-7.108-1.223-9.068 0-2.696 3.424-5.147 7.338-5.392 9.294-.98 15.409 4.412 15.409 11.274v47.545c0 6.372 2.935 12.99 9.784 12.499 11.251-.98 16.388-19.851 19.078-32.595.245-.246.245-.49.245-.736v-.735c3.18-11.764 4.402-35.536 4.647-50.241-7.093-3.431-12.23-9.068-12.23-17.4 0-7.843 7.094-13.725 14.431-14.215 6.849-.49 14.92 2.206 18.1 13.724 2.51.373 5.187.807 7.878 1.267l1.275.219.85.148c.706.123 1.411.248 2.112.373l.838.15c9.61 1.73 18.11 3.48 18.11 3.48 7.583 1.47 14.921 8.333 13.698 14.95 0 3.43-13.942 31.615-13.942 60.29 0 7.842 3.67 15.194 11.496 14.459 13.208-.98 17.855-19.852 20.546-32.596.245-1.47.734-2.696 1.223-3.92V14.82c0-8.333-2.935-8.823-2.935-10.783 0-1.96 5.136-3.676 9.05-3.922ZM178.064 57.954c0-18.871-3.18-27.204-7.827-26.959-3.18.245-4.402 7.108-4.402 11.764h.244v81.856c5.87-12.499 11.985-50.976 11.985-66.661Zm-76.068 21.567c-2.69-12.99-8.561-22.302-17.366-21.567-5.626.49-7.094 4.656-7.094 7.842 0 7.108 6.36 15.44 21.28 14.215Z"/>
</svg>
